symbols-de/shields/motorway_9x3_z16.svg

<?xml version="1.0" encoding="UTF-8" standalone="no"?>
<svg
   xmlns:dc="http://purl.org/dc/elements/1.1/"
   xmlns:cc="http://creativecommons.org/ns#"
   xmlns:rdf="http://www.w3.org/1999/02/22-rdf-syntax-ns#"
   xmlns:svg="http://www.w3.org/2000/svg"
   xmlns="http://www.w3.org/2000/svg"
   xmlns:sodipodi="http://sodipodi.sourceforge.net/DTD/sodipodi-0.dtd"
   xmlns:inkscape="http://www.inkscape.org/namespaces/inkscape"
   width="100%"
   height="100%"
   viewBox="0 0 68.0 36.0"
   id="svg2"
   version="1.1"
   inkscape:version="0.91 r13725"
   sodipodi:docname="autobahn_9x3_z16.svg">
  <metadata
     id="metadata9">
    <rdf:RDF>
      <cc:Work
         rdf:about="">
        <dc:format>image/svg+xml</dc:format>
        <dc:type
           rdf:resource="http://purl.org/dc/dcmitype/StillImage" />
        <dc:title></dc:title>
      </cc:Work>
    </rdf:RDF>
  </metadata>
  <defs
     id="defs7" />
  <sodipodi:namedview
     pagecolor="#ffffff"
     bordercolor="#666666"
     borderopacity="1"
     objecttolerance="10"
     gridtolerance="10"
     guidetolerance="10"
     inkscape:pageopacity="0"
     inkscape:pageshadow="2"
     inkscape:window-width="1065"
     inkscape:window-height="785"
     id="namedview5"
     showgrid="false"
     inkscape:zoom="5.1911765"
     inkscape:cx="34"
     inkscape:cy="18"
     inkscape:window-x="200"
     inkscape:window-y="122"
     inkscape:window-maximized="0"
     inkscape:current-layer="svg2" />
  <path
     style="fill:#365eaf;fill-opacity:1;stroke:#0528a2;stroke-width:1;stroke-miterlimit:4;stroke-dasharray:none;stroke-opacity:1"
     d="m 34.000001,0.5 c -0.480284,0 -0.719727,0.0036 -0.719727,0.01282 L 1.582106,2.448244 C 0.861676,2.541054 0.5,2.681337 0.5,2.866946 l 0,30.26611 c 0,0.18561 0.361676,0.325896 1.082106,0.418701 l 31.698168,1.935423 c 0,0.0093 0.239448,0.01282 0.719727,0.01282 0.480288,0 0.719727,-0.0035 0.719727,-0.01282 l 31.69817,-1.935424 c 0.720434,-0.09281 0.924168,-0.24562 1.082104,-0.418701 0,-16.253565 0,-15.906181 0,-30.26611 0,-0.185609 -0.36167,-0.325899 -1.082104,-0.418702 L 34.719728,0.512818 c 0,-0.0093 -0.239448,-0.01282 -0.719727,-0.01282 z"
     id="path6"
     inkscape:connector-curvature="0"
     sodipodi:nodetypes="sccccccsccccccs" />
</svg>

<?xml version="1.0" encoding="UTF-8"?>
<svg xmlns="http://www.w3.org/2000/svg" xmlns:xlink="http://www.w3.org/1999/xlink" width="64pt" height="48pt" viewBox="0 0 64 48" version="1.1">
<g id="surface1">
<path style="fill-rule:nonzero;fill:rgb(21.176471%,36.862745%,68.627451%);fill-opacity:1;stroke-width:1;stroke-linecap:butt;stroke-linejoin:miter;stroke:rgb(1.960784%,15.686275%,63.529412%);stroke-opacity:1;stroke-miterlimit:4;" d="M 34 0.500977 C 33.518555 0.500977 33.281982 0.503906 33.281982 0.512695 L 1.581299 2.449219 C 0.863281 2.540039 0.498047 2.680664 0.498047 2.868164 L 0.498047 33.131836 C 0.498047 33.319336 0.863281 33.459961 1.581299 33.550781 L 33.281982 35.487305 C 33.281982 35.496094 33.518555 35.499023 34 35.499023 C 34.481445 35.499023 34.718018 35.496094 34.718018 35.487305 L 66.418701 33.550781 C 67.136719 33.459961 67.340088 33.304688 67.501953 33.131836 C 67.501953 16.880859 67.501953 17.226562 67.501953 2.868164 C 67.501953 2.680664 67.136719 2.540039 66.418701 2.449219 L 34.718018 0.512695 C 34.718018 0.503906 34.481445 0.500977 34 0.500977 Z M 34 0.500977 " transform="matrix(0.941176,0,0,1.333333,0,0)"/>
</g>
</svg>
